package/converter/svg/regular/input-numeric.svg

<svg xmlns="http://www.w3.org/2000/svg" viewBox="0 0 640 512"><!-- Font Awesome Pro 6.0.0-alpha2 by @fontawesome - https://fontawesome.com License - https://fontawesome.com/license (Commercial License) --><path d="M576.002 64H63.998C28.654 64 0 92.652 0 128V384C0 419.346 28.654 448 63.998 448H576.002C611.346 448 640 419.348 640 384V128C640 92.654 611.346 64 576.002 64ZM592.002 384C592.002 392.836 584.838 400 576.002 400H63.998C55.162 400 47.998 392.836 47.998 384V128C47.998 119.162 55.162 112 63.998 112H576.002C584.838 112 592.002 119.162 592.002 128V384ZM200 304H184V176C184 167.162 176.836 160 168 160H131.445C123.195 160 115.523 164.238 111.131 171.223C101.078 187.205 112.566 208 131.445 208H136V304H120C106.746 304 96 314.744 96 328C96 341.254 106.746 352 120 352H200C213.254 352 224 341.254 224 328C224 314.744 213.254 304 200 304ZM352 304H319.672L350.734 271.109C369.094 251.672 373.906 224.328 363.312 199.781C352.75 175.25 329.562 160 302.844 160C280.172 160 259.016 173.594 247.641 195.469L242.719 204.906C236.594 216.656 241.156 231.156 252.906 237.281C264.641 243.391 279.156 238.875 285.281 227.094L290.219 217.641C293.312 211.688 298.141 208 302.844 208C313.453 208 317.859 215.547 319.25 218.797C320.656 222.047 323.125 230.437 315.828 238.156L246.547 311.531C239.969 318.5 238.172 328.688 241.953 337.5C245.75 346.312 254.422 352 264 352H352C365.25 352 376 341.25 376 328S365.25 304 352 304Z"/></svg>

<svg xmlns="http://www.w3.org/2000/svg" viewBox="0 0 640 512"><!--! Font Awesome Pro 6.6.0 by @fontawesome - https://fontawesome.com License - https://fontawesome.com/license (Commercial License) Copyright 2024 Fonticons, Inc. --><path d="M576 112c8.8 0 16 7.2 16 16l0 256c0 8.8-7.2 16-16 16L64 400c-8.8 0-16-7.2-16-16l0-256c0-8.8 7.2-16 16-16l512 0zM64 64C28.7 64 0 92.7 0 128L0 384c0 35.3 28.7 64 64 64l512 0c35.3 0 64-28.7 64-64l0-256c0-35.3-28.7-64-64-64L64 64zm40 120c0 13.3 10.7 24 24 24l8 0 0 96-16 0c-13.3 0-24 10.7-24 24s10.7 24 24 24l80 0c13.3 0 24-10.7 24-24s-10.7-24-24-24l-16 0 0-120c0-13.3-10.7-24-24-24l-32 0c-13.3 0-24 10.7-24 24zm190.6 30.4c5.7-8 17.5-8.6 24-1.2c5.2 5.9 5 14.7-.3 20.5l-72 78c-6.5 7-8.2 17.2-4.3 25.9s12.5 14.4 22 14.4l88 0c13.3 0 24-10.7 24-24s-10.7-24-24-24l-33.2 0 34.8-37.7c22-23.8 22.4-60.3 1.1-84.7c-26.9-30.7-75.4-28.4-99.2 4.9l-11.1 15.6c-7.7 10.8-5.2 25.8 5.6 33.5s25.8 5.2 33.5-5.6l11.1-15.6z"/></svg>
